X:1
T:Lord Ronald
M:3/4
L:1/8
K:C
 d2| e2 e2e-g|e-d d2 g2|B-A G2A-B| E4 D3/2- E/2| G2 G2B-d|d-e e2 d3/2- d/2 B/2 B-|\
 A G2 G2 G4|||
